public/images/logo/Vector-1.svg

<svg xmlns="http://www.w3.org/2000/svg" width="96" height="23">
  <path d="M95.9077 9.98522c-.0628-.05975-.1453-.09339-.2312-.09431h-4.5834c-5.8475 0-11.4894.06288-18.0202.89069-.7091.0891-1.9578.241-2.6463.2934.107-.0817.2067-.1729.298-.2724.317-.3465.5555-.7596.6988-1.21033v-.03668c.0062-.04342.0183-.08574.036-.12575.0133-.03212.0236-.06545.0308-.09955l.0668-.27245c.0411-.20957.072-.38248.0874-.52394.0359-.39296.0565-.78591.0668-1.15791V6.79965c0-.28293 0-.34056-.0668-.40344-.0334-.03725-.0752-.06575-.1217-.08307-.0465-.01733-.0964-.02298-.1455-.01648-.1045.02842-.199.08657-.2723.16766l-.3135.29865c-.4663.46202-.9588.89588-1.4747 1.29938-.2466.18338-.5138.36676-.7708.52395-.7834.46716-1.6073.86001-2.4612 1.17363-2.012.75897-4.1009 1.28627-6.2277 1.57187-.1308.0204-.2597.0519-.3854.0943l.4727-.7493c.3392-.5239.7605-1.18932 1.074-1.71851.1747-.29864.2928-.52394.3751-.6916.0822-.16766.1541-.37724.0668-.46631-.0874-.08907-.2415 0-.2878.0262-1.322.9793-2.7269 1.83671-4.198 2.56212-.9866.4244-1.3874.3615-1.5415.2305-.37-.3039.0513-1.34654.2774-1.90716.0514-.13622.0977-.25149.1285-.34056.0308-.08907.0719-.20434 0-.27769-.0238-.01788-.0526-.02752-.0822-.02752-.0296 0-.0584.00964-.0822.02752-1.9748 1.05082-4.028 1.94081-6.1404 2.66161-.443.1502-.9052.2332-1.3719.2463-.1016.0082-.2037-.0068-.2988-.044-.0951-.0371-.1809-.0955-.251-.1708-.3237-.4244.2055-1.30466.632-2.01199.1439-.23577.2775-.45583.37-.64968.1849-.36677.1952-.47679.1438-.55539-.0138-.02134-.0331-.03846-.0557-.04953-.0226-.01107-.0477-.01568-.0727-.01334-1.0032.04143-1.9966.2176-2.9546.52395-.6087.21874-1.1926.50329-1.7419.84878-1.0636.62873-2.1684 1.2784-5.2668 1.4146-.5473.0229-1.0874-.1331-1.5415-.4453-.2333-.13414-.4267-.3301-.5596-.56715-.133-.23705-.2006-.50635-.1958-.77939.0964-.83523.3986-1.63197.8787-2.31582.1593-.27245.6217-.9693 1.3771-2.06958l1.8703.03668c.0452.00185.0903-.00555.1327-.02174.0424-.0162.0811-.04087.114-.07257.0327-.03282.0586-.07198.0763-.11517.0176-.04319.0266-.08954.0264-.13633.0001-.08803-.0339-.17253-.0944-.23527-.0606-.06274-.1429-.09867-.2293-.10005h-1.4079c.6886-.8645 1.2281-1.57183 1.6032-2.1534.0437-.06513.0724-.13948.0839-.21751.0116-.07802.0057-.157697-.0171-.233084-.016-.074766-.0489-.144655-.0963-.204005-.0473-.059351-.1077-.106494-.1763-.137616-.0685-.031122-.1433-.045347-.2183-.041522-.0749.003824-.1479.025592-.2131.063538-.4816.362653-.9017.803369-1.2435 1.304619l-1.1561 1.54039-3.2526-.06287c-.0399-.00039-.0796.00728-.1166.02257-.037.01528-.0707.03788-.0992.0665-.0298.02898-.0535.06397-.0694.10275-.0159.03878-.0238.08051-.0231.12254 0 .09637.0372.18887.1036.25751.0663.06863.1565.10788.251.10925l2.7644.05764c-.8196 1.23481-1.7766 2.36882-2.8518 3.37943-.8288.71581-1.7398 1.32632-2.713 1.81808-.6285.32189-1.288.57649-1.968.75968-.5534.1469-1.124.2157-1.6957.2044.1436-.1046.2761-.224.3957-.3563.3236-.37528.5653-.8164.7091-1.29415.0494-.1601.0906-.32274.1233-.48726.1126-.56469.1813-1.13757.2055-1.7133v-.20957c0-.20958.0309-.42964.0514-.63921V5.4112c.0181-.11629.0181-.23475 0-.35104-.0092-.0725-.0404-.14024-.0893-.19378-.0488-.05354-.1128-.0902-.183-.10487-.1645-.04715-.2672.11003-.3237.20434l-.0411.05239c-.0771.09955-.1593.1991-.2518.30389-.1696.19386-.3443.38248-.5396.57634-.3686.3759-.7617.72599-1.1766 1.04788-.2415.18862-.5139.37724-.8119.57634-.298.1991-.7194.46107-1.1407.70732-1.1449.60761-2.3509 1.08718-3.5969 1.43037-3.2266.99162-6.5647 1.55692-9.9324 1.68182-3.69352.0865-7.38866-.0675-11.062913-.461-.083705-.0058-.166267.0223-.229762.0782-.0634949.0559-.1027958.1351-.1093697.2204-.0056672.0868.0224518.1723.078251.238.0557987.0657.1347737.1063.2197737.1131 3.08302.2776 5.41069.4191 7.5277.461 1.87036.0419 3.56602 0 5.17942-.131 1.6942-.1342 3.3791-.3704 5.0459-.7073.8581-.1729 1.7316-.3772 2.5692-.6025.4368-.1153.8838-.241 1.336-.3773 2.0697-.55028 3.998-1.55126 5.6522-2.93404.1438-.12574.2877-.25673.4316-.39295.1129-.11238.2192-.23134.3186-.35629l.0873-.09955c.0123-.01532.0261-.02936.0411-.04191a.382271.382271 0 0 1 0 .07859c-.0069.10185-.0189.20328-.0359.30389-.0025.04887-.0025.09783 0 .1467.0044.05755.0044.11536 0 .1729v.09955c0 .09431-.0257.18862-.036.28293 0 .07859 0 .15718-.036.23578-.0257.17814-.0514.32484-.0822.46106-.0756.39009-.2201.76292-.4265 1.10029-.2672.40343-.6474.83305-.9043.88025-.2342.0402-.472.0542-.7091.0419-.2878 0-.5909-.0734-.9301-.1362-.2004-.03148-.4162-.07863-.632-.12579l-.1798-.02619c-.37-.12051-.5139-.15195-.5858-.09955-.1046.08227-.1869.19042-.2391.31423-.0521.1238-.0724.2591-.0589.3931 0 .3196.2209.5711.6525.7545.3041.1251.628.1926.9558.1991.5791-.0034 1.1436-.1861 1.6186-.524.483 0 1.0893 0 1.9114-.089 1.4783-.1348 2.907-.6114 4.1775-1.39374.92-.56182 1.7617-1.24736 2.5024-2.03813-.0501.26418-.0759.53255-.0771.80163-.0216.36642.0296.73351.1506 1.07925.1209.34574.3092.66298.5534.93269.3175.2769.686.4863 1.084.6158.3979.1296.8173.1767 1.2334.1387 1.2769-.0029 2.5469-.1917 3.7715-.5606.3509-.1051.6943-.2347 1.0277-.3878-.0536.1416-.0777.293-.0706.4446.0071.1516.0452.2999.1117.4357.1112.1953.2698.3582.4606.4729.1908.1147.4073.1774.6288.182h.1027c.83-.0671 1.6211-.3865 2.2712-.9169-.0103.2112.0535.4192.1798.5868.1769.1964.3999.3437.648.428.2481.0844.5131.103.7702.054 1.7573-.2253 3.6739-1.1736 5.2154-1.93331.3854-.18862.7348-.36152 1.0277-.52394-.2226.36382-.3954.75691-.5138 1.16835-.0571.145-.0743.303-.0498.4572.0244.1541.0896.2986.1885.4178.1515.112.3257.1881.5097.2225.1841.0345.3733.0265.554-.0234.5454-.0961 1.0782-.2561 1.5877-.4768 1.0474-.4356 2.0564-.9614 3.0162-1.5718-.6628.8383-2.081 2.5306-2.4561 2.8869-.4573.3144-.8119.524-1.0277.6707-2.0532 1.2781-3.924 2.8384-5.5597 4.6369-.5657.6422-1.0381 1.3639-1.4028 2.1429-.3003.6346-.4616 1.3283-.4727 2.0329 0 .9693.4779 1.1841.8838 1.1946h.0411c.4085-.014.8067-.1349 1.1561-.3511.4922-.2871.9449-.6395 1.3463-1.0478.7156-.7072 1.3547-1.4906 1.9063-2.3368l3.7459-5.6272c.3597-.5239.6063-.8907.7348-1.0479.9609-.5239 2.8209-.9535 4.1877-1.2574l1.0277-.2358c1.009-.2619 1.9995-.5927 2.9648-.9902 1.1054-.42122 2.1441-1.00553 3.0831-1.7343.3031-.24372.5851-.51368.8427-.80687.007.06442.007.12944 0 .19386v.07859c0 .13622-.0411.29864-.0617.45583-.0338.3029-.0835.60373-.149.90118-.0672.3729-.205.72885-.4059 1.04791-.2364.351-.6012.7754-.8581.8173-.2238.0404-.4514.0544-.6783.0419-.2826-.0262-.5755-.0681-.8889-.1257-.1953-.0314-.3906-.0734-.6064-.1205l-.1336-.0419c-.3545-.1153-.4881-.1415-.5703-.0891-.1002.0762-.1793.1775-.2298.2941-.0504.1166-.0704.2445-.058.3713 0 .3039.2107.524.6269.7126.2919.1156.6015.1777.9146.1834.554-.012 1.0914-.1947 1.5415-.524.6091.0034 1.2179-.0246 1.8242-.0838l.411-.0419c1.0637-.1205 3.8898-.4454 7.7076-.7126 4.7992-.3353 9.3107-.4558 13.4111-.351h3.0984c.0424.0001.0843-.0087.1232-.0258.0389-.0171.074-.0422.1029-.0738.059-.0616.092-.1444.092-.2305 0-.0862-.033-.1689-.092-.2306l-.0514-.01568Zm-50.9366-.96405c.8825-.44939 1.8357-.73671 2.8159-.84879-.5028.89473-1.2073 1.65446-2.0554 2.21632-.2033.1407-.4368.2299-.6808.2599-.244.0301-.4915.0003-.7219-.087-.1037-.0359-.1913-.1085-.247-.2047-.0556-.0961-.0755-.2094-.0562-.3193.036-.31959.3854-.69683.9454-1.01643ZM25.9592 10.6821c-.2341.1358-.5018.1995-.7707.1833-.5755 0-.5755-.2514-.5755-.3405-.004-.0172-.004-.0352 0-.0524.0565 0 .3391.0419.8272.1257l.519.0839Zm24.0732 11.5581c-.0531-.0061-.1039-.0262-.1471-.0583-.0433-.0322-.0775-.0753-.0995-.125-.0728-.1238-.1135-.2645-.1182-.4087.0375-.5993.2136-1.181.5138-1.6976.7788-1.4085 1.7826-2.6746 2.97-3.7462 1.0951-1.0291 2.3019-1.9274 3.5969-2.6773-.0421.0932-.0919.1826-.149.2672l-3.2218 5.1556c-.4364.6975-.9316 1.3549-1.4798 1.9648-.7811.8802-1.408 1.3255-1.8653 1.3255Zm18.3491-10.6884c-.2206.1149-.4668.1691-.7142.1572-.5447 0-.5447-.2305-.5447-.3091v-.0419c0-.0105.3237.0419.7862.1152l.4727.0786Z"/>
</svg>

<svg width="96" height="23" viewBox="0 0 96 23"  xmlns="http://www.w3.org/2000/svg">
<path d="M95.9077 9.98522C95.8449 9.92547 95.7624 9.89183 95.6765 9.89091H91.0931C85.2456 9.89091 79.6037 9.95379 73.0729 10.7816C72.3638 10.8707 71.1151 11.0226 70.4266 11.075C70.5336 10.9933 70.6333 10.9021 70.7246 10.8026C71.0416 10.4561 71.2801 10.043 71.4234 9.59227V9.55559C71.4296 9.51217 71.4417 9.46985 71.4594 9.42984C71.4727 9.39772 71.483 9.36439 71.4902 9.33029L71.557 9.05784C71.5981 8.84827 71.629 8.67536 71.6444 8.5339C71.6803 8.14094 71.7009 7.74799 71.7112 7.37599C71.7112 7.28692 71.7112 7.19785 71.7112 7.10354C71.7112 7.00923 71.7112 6.8992 71.7112 6.79965C71.7112 6.51672 71.7112 6.45909 71.6444 6.39621C71.611 6.35896 71.5692 6.33046 71.5227 6.31314C71.4762 6.29581 71.4263 6.29016 71.3772 6.29666C71.2727 6.32508 71.1782 6.38323 71.1049 6.46432L70.7914 6.76297C70.3251 7.22499 69.8326 7.65885 69.3167 8.06235C69.0701 8.24573 68.8029 8.42911 68.5459 8.5863C67.7625 9.05346 66.9386 9.44631 66.0847 9.75993C64.0727 10.5189 61.9838 11.0462 59.857 11.3318C59.7262 11.3522 59.5973 11.3837 59.4716 11.4261L59.9443 10.6768C60.2835 10.1529 60.7048 9.48748 61.0183 8.95829C61.193 8.65965 61.3111 8.43435 61.3934 8.26669C61.4756 8.09903 61.5475 7.88945 61.4602 7.80038C61.3728 7.71131 61.2187 7.80038 61.1724 7.82658C59.8504 8.80588 58.4455 9.66329 56.9744 10.3887C55.9878 10.8131 55.587 10.7502 55.4329 10.6192C55.0629 10.3153 55.4842 9.27266 55.7103 8.71204C55.7617 8.57582 55.808 8.46055 55.8388 8.37148C55.8696 8.28241 55.9107 8.16714 55.8388 8.09379C55.815 8.07591 55.7862 8.06627 55.7566 8.06627C55.727 8.06627 55.6982 8.07591 55.6744 8.09379C53.6996 9.14461 51.6464 10.0346 49.534 10.7554C49.091 10.9056 48.6288 10.9886 48.1621 11.0017C48.0605 11.0099 47.9584 10.9949 47.8633 10.9577C47.7682 10.9206 47.6824 10.8622 47.6123 10.7869C47.2886 10.3625 47.8178 9.48224 48.2443 8.77491C48.3882 8.53914 48.5218 8.31908 48.6143 8.12523C48.7992 7.75846 48.8095 7.64844 48.7581 7.56984C48.7443 7.5485 48.725 7.53138 48.7024 7.52031C48.6798 7.50924 48.6547 7.50463 48.6297 7.50697C47.6265 7.5484 46.6331 7.72457 45.6751 8.03092C45.0664 8.24966 44.4825 8.53421 43.9332 8.8797C42.8696 9.50843 41.7648 10.1581 38.6664 10.2943C38.1191 10.3172 37.579 10.1612 37.1249 9.849C36.8916 9.71486 36.6982 9.5189 36.5653 9.28185C36.4323 9.0448 36.3647 8.7755 36.3695 8.50246C36.4659 7.66723 36.7681 6.87049 37.2482 6.18664C37.4075 5.91419 37.8699 5.21734 38.6253 4.11706L40.4956 4.15374C40.5408 4.15559 40.5859 4.14819 40.6283 4.132C40.6707 4.1158 40.7094 4.09113 40.7423 4.05943C40.775 4.02661 40.8009 3.98745 40.8186 3.94426C40.8362 3.90107 40.8452 3.85472 40.845 3.80793C40.8451 3.7199 40.8111 3.6354 40.7506 3.57266C40.69 3.50992 40.6077 3.47399 40.5213 3.47261H39.1134C39.802 2.60811 40.3415 1.90078 40.7166 1.31921C40.7603 1.25408 40.789 1.17973 40.8005 1.1017C40.8121 1.02368 40.8062 0.944003 40.7834 0.868616C40.7674 0.79385 40.7345 0.723961 40.6871 0.664611C40.6398 0.60526 40.5794 0.558117 40.5108 0.526995C40.4423 0.495873 40.3675 0.481648 40.2925 0.485473C40.2176 0.489297 40.1446 0.511065 40.0794 0.549011C39.5978 0.911664 39.1777 1.35238 38.8359 1.85363L37.6798 3.39402L34.4272 3.33115C34.3873 3.33076 34.3476 3.33843 34.3106 3.35372C34.2736 3.369 34.2399 3.3916 34.2114 3.42022C34.1816 3.4492 34.1579 3.48419 34.142 3.52297C34.1261 3.56175 34.1182 3.60348 34.1189 3.64551C34.1189 3.74188 34.1561 3.83438 34.2225 3.90302C34.2888 3.97165 34.379 4.0109 34.4735 4.01227L37.2379 4.06991C36.4183 5.30472 35.4613 6.43873 34.3861 7.44934C33.5573 8.16515 32.6463 8.77566 31.6731 9.26742C31.0446 9.58931 30.3851 9.84391 29.7051 10.0271C29.1517 10.174 28.5811 10.2428 28.0094 10.2315C28.153 10.1269 28.2855 10.0075 28.4051 9.8752C28.7287 9.49992 28.9704 9.0588 29.1142 8.58105C29.1636 8.42095 29.2048 8.25831 29.2375 8.09379C29.3501 7.5291 29.4188 6.95622 29.443 6.38049V6.17092C29.443 5.96134 29.4739 5.74128 29.4944 5.53171C29.4944 5.49503 29.4944 5.45836 29.4944 5.4112C29.5125 5.29491 29.5125 5.17645 29.4944 5.06016C29.4852 4.98766 29.454 4.91992 29.4051 4.86638C29.3563 4.81284 29.2923 4.77618 29.2221 4.76151C29.0576 4.71436 28.9549 4.87154 28.8984 4.96585L28.8573 5.01824C28.7802 5.11779 28.698 5.21734 28.6055 5.32213C28.4359 5.51599 28.2612 5.70461 28.0659 5.89847C27.6973 6.27437 27.3042 6.62446 26.8893 6.94635C26.6478 7.13497 26.3754 7.32359 26.0774 7.52269C25.7794 7.72179 25.358 7.98376 24.9367 8.23001C23.7918 8.83762 22.5858 9.31719 21.3398 9.66038C18.1132 10.652 14.7751 11.2173 11.4074 11.3422C7.71388 11.4287 4.01874 11.2747 0.344487 10.8812C0.260782 10.8754 0.17822 10.9035 0.114725 10.9594C0.0512301 11.0153 0.0119292 11.0945 0.00535525 11.1798C-0.000311867 11.2666 0.0278071 11.3521 0.0836063 11.4178C0.139405 11.4835 0.21838 11.5241 0.30338 11.5309C3.3864 11.8085 5.71407 11.95 7.83108 11.9919C9.70144 12.0338 11.3971 11.9919 13.0105 11.8609C14.7047 11.7267 16.3896 11.4905 18.0564 11.1536C18.9145 10.9807 19.788 10.7764 20.6256 10.5511C21.0624 10.4358 21.5094 10.3101 21.9616 10.1738C24.0313 9.62352 25.9596 8.62254 27.6138 7.23976C27.7576 7.11402 27.9015 6.98303 28.0454 6.84681C28.1583 6.73443 28.2646 6.61547 28.364 6.49052L28.4513 6.39097C28.4636 6.37565 28.4774 6.36161 28.4924 6.34906C28.4951 6.37518 28.4951 6.40153 28.4924 6.42765C28.4855 6.5295 28.4735 6.63093 28.4565 6.73154C28.454 6.78041 28.454 6.82937 28.4565 6.87824C28.4609 6.93579 28.4609 6.9936 28.4565 7.05114V7.15069C28.4565 7.245 28.4308 7.33931 28.4205 7.43362C28.4205 7.51221 28.4205 7.5908 28.3845 7.6694C28.3588 7.84754 28.3331 7.99424 28.3023 8.13046C28.2267 8.52055 28.0822 8.89338 27.8758 9.23075C27.6086 9.63418 27.2284 10.0638 26.9715 10.111C26.7373 10.1512 26.4995 10.1652 26.2624 10.1529C25.9746 10.1529 25.6715 10.0795 25.3323 10.0167C25.1319 9.98522 24.9161 9.93807 24.7003 9.89091L24.5205 9.86472C24.1505 9.74421 24.0066 9.71277 23.9347 9.76517C23.8301 9.84744 23.7478 9.95559 23.6956 10.0794C23.6435 10.2032 23.6232 10.3385 23.6367 10.4725C23.6367 10.7921 23.8576 11.0436 24.2892 11.227C24.5933 11.3521 24.9172 11.4196 25.245 11.4261C25.8241 11.4227 26.3886 11.24 26.8636 10.9021C27.3466 10.9021 27.9529 10.9021 28.775 10.8131C30.2533 10.6783 31.682 10.2017 32.9525 9.41936C33.8725 8.85754 34.7142 8.172 35.4549 7.38123C35.4048 7.64541 35.379 7.91378 35.3778 8.18286C35.3562 8.54928 35.4074 8.91637 35.5284 9.26211C35.6493 9.60785 35.8376 9.92509 36.0818 10.1948C36.3993 10.4717 36.7678 10.6811 37.1658 10.8106C37.5637 10.9402 37.9831 10.9873 38.3992 10.9493C39.6761 10.9464 40.9461 10.7576 42.1707 10.3887C42.5216 10.2836 42.865 10.154 43.1984 10.0009C43.1448 10.1425 43.1207 10.2939 43.1278 10.4455C43.1349 10.5971 43.173 10.7454 43.2395 10.8812C43.3507 11.0765 43.5093 11.2394 43.7001 11.3541C43.8909 11.4688 44.1074 11.5315 44.3289 11.5361H44.4316C45.2616 11.469 46.0527 11.1496 46.7028 10.6192C46.6925 10.8304 46.7563 11.0384 46.8826 11.206C47.0595 11.4024 47.2825 11.5497 47.5306 11.634C47.7787 11.7184 48.0437 11.737 48.3008 11.688C50.0581 11.4627 51.9747 10.5144 53.5162 9.75469C53.9016 9.56607 54.251 9.39317 54.5439 9.23075C54.3213 9.59457 54.1485 9.98766 54.0301 10.3991C53.973 10.5441 53.9558 10.7021 53.9803 10.8563C54.0047 11.0104 54.0699 11.1549 54.1688 11.2741C54.3203 11.3861 54.4945 11.4622 54.6785 11.4966C54.8626 11.5311 55.0518 11.5231 55.2325 11.4732C55.7779 11.3771 56.3107 11.2171 56.8202 10.9964C57.8676 10.5608 58.8766 10.035 59.8364 9.4246C59.1736 10.2629 57.7554 11.9552 57.3803 12.3115C56.923 12.6259 56.5684 12.8355 56.3526 12.9822C54.2994 14.2603 52.4286 15.8206 50.7929 17.6191C50.2272 18.2613 49.7548 18.983 49.3901 19.762C49.0898 20.3966 48.9285 21.0903 48.9174 21.7949C48.9174 22.7642 49.3953 22.979 49.8012 22.9895H49.8423C50.2508 22.9755 50.649 22.8546 50.9984 22.6384C51.4906 22.3513 51.9433 21.9989 52.3447 21.5906C53.0603 20.8834 53.6994 20.1 54.251 19.2538L57.9969 13.6266C58.3566 13.1027 58.6032 12.7359 58.7317 12.5787C59.6926 12.0548 61.5526 11.6252 62.9194 11.3213L63.9471 11.0855C64.9561 10.8236 65.9466 10.4928 66.9119 10.0953C68.0173 9.67408 69.056 9.08977 69.995 8.361C70.2981 8.11728 70.5801 7.84732 70.8377 7.55413C70.8447 7.61855 70.8447 7.68357 70.8377 7.74799V7.82658C70.8377 7.9628 70.7966 8.12522 70.776 8.28241C70.7422 8.58531 70.6925 8.88614 70.627 9.18359C70.5598 9.55649 70.422 9.91244 70.2211 10.2315C69.9847 10.5825 69.6199 11.0069 69.363 11.0488C69.1392 11.0892 68.9116 11.1032 68.6847 11.0907C68.4021 11.0645 68.1092 11.0226 67.7958 10.965C67.6005 10.9336 67.4052 10.8916 67.1894 10.8445L67.0558 10.8026C66.7013 10.6873 66.5677 10.6611 66.4855 10.7135C66.3853 10.7897 66.3062 10.891 66.2557 11.0076C66.2053 11.1242 66.1853 11.2521 66.1977 11.3789C66.1977 11.6828 66.4084 11.9029 66.8246 12.0915C67.1165 12.2071 67.4261 12.2692 67.7392 12.2749C68.2932 12.2629 68.8306 12.0802 69.2807 11.7509C69.8898 11.7543 70.4986 11.7263 71.1049 11.6671L71.5159 11.6252C72.5796 11.5047 75.4057 11.1798 79.2235 10.9126C84.0227 10.5773 88.5342 10.4568 92.6346 10.5616C93.3437 10.5616 94.0785 10.5616 94.7876 10.5616H95.733C95.7754 10.5617 95.8173 10.5529 95.8562 10.5358C95.8951 10.5187 95.9302 10.4936 95.9591 10.462C96.0181 10.4004 96.0511 10.3176 96.0511 10.2315C96.0511 10.1453 96.0181 10.0626 95.9591 10.0009L95.9077 9.98522ZM44.9711 9.02117C45.8536 8.57178 46.8068 8.28446 47.787 8.17238C47.2842 9.06711 46.5797 9.82684 45.7316 10.3887C45.5283 10.5294 45.2948 10.6186 45.0508 10.6486C44.8068 10.6787 44.5593 10.6489 44.3289 10.5616C44.2252 10.5257 44.1376 10.4531 44.0819 10.3569C44.0263 10.2608 44.0064 10.1475 44.0257 10.0376C44.0617 9.71801 44.4111 9.34077 44.9711 9.02117ZM25.9592 10.6821C25.7251 10.8179 25.4574 10.8816 25.1885 10.8654C24.613 10.8654 24.613 10.614 24.613 10.5249C24.609 10.5077 24.609 10.4897 24.613 10.4725C24.6695 10.4725 24.9521 10.5144 25.4402 10.5982L25.9592 10.6821ZM50.0324 22.2402C49.9793 22.2341 49.9285 22.214 49.8853 22.1819C49.842 22.1497 49.8078 22.1066 49.7858 22.0569C49.713 21.9331 49.6723 21.7924 49.6676 21.6482C49.7051 21.0489 49.8812 20.4672 50.1814 19.9506C50.9602 18.5421 51.964 17.276 53.1514 16.2044C54.2465 15.1753 55.4533 14.277 56.7483 13.5271C56.7062 13.6203 56.6564 13.7097 56.5993 13.7943L53.3775 18.9499C52.9411 19.6474 52.4459 20.3048 51.8977 20.9147C51.1166 21.7949 50.4897 22.2402 50.0324 22.2402ZM68.3815 11.5518C68.1609 11.6667 67.9147 11.7209 67.6673 11.709C67.1226 11.709 67.1226 11.4785 67.1226 11.3999C67.1226 11.3213 67.1226 11.3684 67.1226 11.358C67.1226 11.3475 67.4463 11.3999 67.9088 11.4732L68.3815 11.5518Z" />
</svg>
